X:1
T:Rambling Boy
M:4/4
L:1/8
K:A
 z4 z EE A| c4- cB AF| E4- EA, CF| E4- EB, FF| E6 EA| c4- cB AF| E4- EA, CF|\
 E4- EB, DC| A,4- A,E EF| E4- E E/2E/2 DC| A,4 z EE F| E4- E E/2E/2 FA|\
 E4 z EE A| c4- c B/2B/2 AF| E4- EA, CF| E4- E E/2E/2 DC| A,8|
